dist/img/svg/ic_user.svg

<svg width="17" height="16" viewBox="0 0 17 16" fill="none" xmlns="http://www.w3.org/2000/svg">
<path d="M11.3122 7.77149C12.4041 6.97758 13.1087 5.73366 13.1087 4.33754C13.1087 1.94582 11.0413 0 8.50002 0C5.9588 0 3.89136 1.94582 3.89136 4.33754C3.89136 5.73362 4.59596 6.97758 5.68787 7.77149C2.44933 8.83689 0 11.7612 0 15.3249C0 15.6977 0.321136 16 0.717301 16H16.2827C16.6789 16 17 15.6977 17 15.3249C17 11.7604 14.5489 8.83627 11.3122 7.77149ZM5.32596 4.33754C5.32596 2.69033 6.74985 1.35021 8.50002 1.35021C10.2502 1.35021 11.6741 2.69033 11.6741 4.33754C11.6741 5.98477 10.2502 7.32489 8.50002 7.32489C6.74985 7.32489 5.32596 5.98477 5.32596 4.33754ZM1.47075 14.6498C1.8313 11.2989 4.84619 8.67509 8.50002 8.67509C12.1539 8.67509 15.1687 11.2989 15.5293 14.6498H1.47075Z" fill="#333333"/>
</svg>

<svg width="17" height="16" viewBox="0 0 17 16" fill="none" xmlns="http://www.w3.org/2000/svg"><path d="M11.312 7.771c1.092-.793 1.797-2.037 1.797-3.433C13.109 1.946 11.04 0 8.5 0S3.891 1.946 3.891 4.338c0 1.396.705 2.64 1.797 3.433C2.449 8.837 0 11.761 0 15.325c0 .373.321.675.717.675h15.566c.396 0 .717-.302.717-.675 0-3.565-2.451-6.489-5.688-7.554zM5.326 4.338C5.326 2.69 6.75 1.35 8.5 1.35s3.174 1.34 3.174 2.988c0 1.647-1.424 2.987-3.174 2.987s-3.174-1.34-3.174-2.987zM1.471 14.65c.36-3.351 3.375-5.975 7.029-5.975s6.669 2.624 7.03 5.975H1.47z" fill="#333"/></svg>
